Icons/SVGs/document.svg

<?xml version="1.0" encoding="UTF-8" standalone="no"?>
<svg width="100px" height="100px" viewBox="0 0 100 100" version="1.1" xmlns="http://www.w3.org/2000/svg" xmlns:xlink="http://www.w3.org/1999/xlink" xmlns:sketch="http://www.bohemiancoding.com/sketch/ns">
    <!-- Generator: Sketch 3.3.3 (12072) - http://www.bohemiancoding.com/sketch -->
    <title>document</title>
    <desc>Created with Sketch.</desc>
    <defs></defs>
    <g id="Page-1" stroke="none" stroke-width="1" fill="none" fill-rule="evenodd" sketch:type="MSPage">
        <g id="document" sketch:type="MSArtboardGroup" fill="#000000">
            <path d="M57.2438393,30.9583033 L78.3077867,30.9583033 L57.2438393,9.89437255 L57.2438393,30.9583033 L57.2438393,30.9583033 Z M80.2227891,38.6179532 L49.5841839,38.6179532 L49.5841839,7.97933698 L19.7771943,7.97945869 L19.7771943,52.4833903 L12.1175422,52.476763 L12.1175422,0.319718047 L59.1587532,0.319718047 L87.8824666,29.0433895 L87.8824666,99.8951857 L12.1175422,99.8951857 L12.1175422,52.5144301 L19.7771943,52.4439086 L19.7771943,92.2355635 L80.2227891,92.2355635 L80.2227891,38.6179532 L80.2227891,38.6179532 Z" sketch:type="MSShapeGroup"></path>
        </g>
    </g>
</svg>

<?xml version="1.0" encoding="UTF-8" standalone="no"?>
<svg
   xmlns:sketch="http://www.bohemiancoding.com/sketch/ns"
   xmlns:dc="http://purl.org/dc/elements/1.1/"
   xmlns:cc="http://creativecommons.org/ns#"
   xmlns:rdf="http://www.w3.org/1999/02/22-rdf-syntax-ns#"
   xmlns:svg="http://www.w3.org/2000/svg"
   xmlns="http://www.w3.org/2000/svg"
   xmlns:sodipodi="http://sodipodi.sourceforge.net/DTD/sodipodi-0.dtd"
   xmlns:inkscape="http://www.inkscape.org/namespaces/inkscape"
   width="100px"
   height="100px"
   viewBox="0 0 100 100"
   version="1.1"
   id="svg2"
   inkscape:version="0.91 r13725"
   sodipodi:docname="document.svg">
  <metadata
     id="metadata16">
    <rdf:RDF>
      <cc:Work
         rdf:about="">
        <dc:format>image/svg+xml</dc:format>
        <dc:type
           rdf:resource="http://purl.org/dc/dcmitype/StillImage" />
      </cc:Work>
    </rdf:RDF>
  </metadata>
  <sodipodi:namedview
     pagecolor="#ffffff"
     bordercolor="#666666"
     borderopacity="1"
     objecttolerance="10"
     gridtolerance="10"
     guidetolerance="10"
     inkscape:pageopacity="0"
     inkscape:pageshadow="2"
     inkscape:window-width="1593"
     inkscape:window-height="1033"
     id="namedview14"
     showgrid="false"
     inkscape:zoom="5.5604005"
     inkscape:cx="50.261385"
     inkscape:cy="50"
     inkscape:window-x="323"
     inkscape:window-y="27"
     inkscape:window-maximized="0"
     inkscape:current-layer="svg2" />
  <!-- Generator: Sketch 3.3.3 (12072) - http://www.bohemiancoding.com/sketch -->
  <title
     id="title4">document</title>
  <desc
     id="desc6">Created with Sketch.</desc>
  <defs
     id="defs8" />
  <g
     id="Page-1"
     sketch:type="MSPage"
     transform="matrix(0.93353641,0,0,0.93353641,2.8053753,4.0212496)"
     style="fill:none;fill-rule:evenodd;stroke:none;stroke-width:1">
    <g
       id="document"
       sketch:type="MSArtboardGroup"
       style="fill:#000000">
      <path
         d="m 57.243839,30.958303 21.063948,0 -21.063948,-21.0639304 0,21.0639304 0,0 z m 22.97895,7.65965 -30.638605,0 0,-30.638616 -29.80699,1.217e-4 0,44.5039313 -7.659652,-0.0066 0,-52.15704495 47.041211,0 28.723714,28.72367095 0,70.851797 -75.764925,0 0,-47.380756 7.659652,-0.07052 0,39.791654 60.445595,0 0,-53.61761 0,0 z"
         sketch:type="MSShapeGroup"
         id="path12"
         inkscape:connector-curvature="0" />
    </g>
  </g>
</svg>
